src/topics/icons/clickdeploy.svg

<svg height="192" preserveAspectRatio="xMidYMid" viewBox="0 0 256 192" width="256" xmlns="http://www.w3.org/2000/svg"><path d="m134.028357 126.958919 22.793477 9.675257.268288-92.408515-66.2867532 64.385339 22.5942182 9.590677-10.329767 24.335405 20.63077 8.757242zm-75.7559835 64.293999c-32.1829432 0-58.2723735-26.08943-58.2723735-58.272373 0-25.045233 15.8002238-46.4001268 37.9765841-54.6405929 1.9766803-30.393332 27.254883-54.4333373 58.1479295-54.4333373 4.5754164 0 9.0276704.5273201 13.2993044 1.5245017l.000006-.0000088c11.832355-15.46005288 30.475631-25.4311077 51.447771-25.4311077 35.758826 0 64.747082 28.9882559 64.747082 64.7470817 0 1.9999975-.090681 3.9788153-.268154 5.9325664 18.408561 11.5348455 30.649477 32.0019799 30.649477 55.3281339 0 36.033894-29.211243 65.245136-65.245136 65.245136v.498055h-132.4824905z"/></svg>

<?xml version="1.0" encoding="UTF-8" standalone="no"?>
<svg width="256px" height="192px" viewBox="0 0 256 192" version="1.1" xmlns="http://www.w3.org/2000/svg" xmlns:xlink="http://www.w3.org/1999/xlink" preserveAspectRatio="xMidYMid">
    <g>
        <path d="M134.028357,126.958919 L156.821834,136.634176 L157.090122,44.225661 L90.8033688,108.611 L113.397587,118.201677 L103.06782,142.537082 L123.69859,151.294324 L134.028357,126.958919 L134.028357,126.958919 Z M58.2723735,191.252918 C26.0894303,191.252918 0,165.163488 0,132.980545 C0,107.935312 15.8002238,86.5804182 37.9765841,78.3399521 C39.9532644,47.9466201 65.2314671,23.9066148 96.1245136,23.9066148 C100.69993,23.9066148 105.152184,24.4339349 109.423818,25.4311165 L109.423824,25.4311077 C121.256179,9.97105482 139.899455,0 160.871595,0 C196.630421,0 225.618677,28.9882559 225.618677,64.7470817 C225.618677,66.7470792 225.527996,68.725897 225.350523,70.6796481 C243.759084,82.2144936 256,102.681628 256,126.007782 C256,162.041676 226.788757,191.252918 190.754864,191.252918 L190.754864,191.750973 L58.2723735,191.750973 L58.2723735,191.252918 L58.2723735,191.252918 Z" fill="#000000"></path>
    </g>
</svg>
